X:1
T: Loch Torridon
C:
R:Reel
Q: 232
K:Am
M:4/4
L:1/8
|:A|E3A AB cd|e3d c3A|B3G G^F GA|B2 AG E3D|
E3A AB cd|e3d e3a|g3e ed cB|c3A A3A|
e3a ab ga|b3a g3e|d3e g2 a2|eg ga g2 ed|
e3a ab ga|b3a g3e|de ga ge de|c3A A3:|
